X: 41646
T: Up To Moville
R: barndance
M: 4/4
K: Gmajor
|:G>A|B2 B>A G>Bd>B|e>g (3fga g>ed>c|B>cB>A G>B d2|1 c>A (3FGA G>F:|2 (3cBA F>A G2||
(3def|g2 b>g f>ga>f|e>^de>f g>=d (3Bcd|g>ab>g f2 (3agf|e^de>g a2 =d>f|
g>a (3bag f>g a2|(3efg f>a g>ed>c|B>^AB>=A G>AB<d|c<AF>D G2||

